!!!COM: Webern, Anton : von
!!!OPS: Opus 21
!!!OMV: Mov. 1
!!!OTL: Symphonie
!!!XEN: Symphony
!!!YEC: Copyright 1995, David Huron & Brian Alegant
!!!YEM: This data is the property of David Huron and Brian Alegant, and is
!!!YEM: available by license only.  Refer to accompanying license agreement.
!!!YEM: This data may not be copied or translated to another format except in
!!!YEM: accordance with the license agreement.
!!!RDF1: U=mute
!! "Ruhig schreitend"
**kern	**kern	**kern	**kern	**kern	**kern	**kern	**kern	**kern	**kern
*ICstr	*ICstr	*ICstr	*ICstr	*ICstr	*ICstr	*ICbras	*ICww	*ICww	*ICww
*Icello	*Iviola	*Ivioln	*Ivioln	*Iarpa	*Iarpa	*Icor	*Icor	*Iclarb	*Iclars
!	!	!violn2	!violn1	!	!	!	!	!	!
*clefF4	*clefC3	*clefG2	*clefG2	*clefF4	*clefG2	*clefF4	*clefF4	*clefF4	*clefG2
*M2/2	*M2/2	*M2/2	*M2/2	*M2/2	*M2/2	*M2/2	*M2/2	*M2/2	*M2/2
*MM100	*MM100	*MM100	*MM100	*MM100	*MM100	*MM100	*MM100	*MM100	*MM100
*k[]	*k[]	*k[]	*k[]	*k[]	*k[]	*k[]	*k[]	*k[]	*k[]
*X:	*X:	*X:	*X:	*X:	*X:	*X:	*X:	*X:	*X:
*>[A,B,C,B,D,E,F,E,G]	*>[A,B,C,B,D,E,F,E,G]	*>[A,B,C,B,D,E,F,E,G]	*>[A,B,C,B,D,E,F,E,G]	*>[A,B,C,B,D,E,F,E,G]	*>[A,B,C,B,D,E,F,E,G]	*>[A,B,C,B,D,E,F,E,G]	*>[A,B,C,B,D,E,F,E,G]	*>[A,B,C,B,D,E,F,E,G]	*>[A,B,C,B,D,E,F,E,G]
*>A	*>A	*>A	*>A	*>A	*>A	*>A	*>A	*>A	*>A
=1-	=1-	=1-	=1-	=1-	=1-	=1-	=1-	=1-	=1-
1r	1r	1r	1r	1r	1r	4r	1r	1r	1r
.	.	.	.	.	.	2An~	.	.	.
.	.	.	.	.	.	4r	.	.	.
*>B	*>B	*>B	*>B	*>B	*>B	*>B	*>B	*>B	*>B
=2	=2	=2	=2	=2	=2	=2	=2	=2	=2
1r	1r	1r	1r	4r	1r	2f#~	1r	1r	1r
.	.	.	.	2Fn~	.	.	.	.	.
.	.	.	.	.	.	4r	.	.	.
.	.	.	.	4r	.	4f#~	.	.	.
=3	=3	=3	=3	=3	=3	=3	=3	=3	=3
2r	1r	1r	1r	1r	1r	(1GGn	4r	1r	1r
.	.	.	.	.	.	.	2An~	.	.
4r	.	.	.	.	.	.	.	.	.
4A-~"	.	.	.	.	.	.	4r	.	.
=4	=4	=4	=4	=4	=4	=4	=4	=4	=4
4r	1r	1r	1r	4r	1r	1A-)	2Cn~	1r	1r
4GGn"	.	.	.	2c#~	.	.	.	.	.
2r	.	.	.	.	.	.	4r	.	.
.	.	.	.	4r	.	.	4Cn~	.	.
=5	=5	=5	=5	=5	=5	=5	=5	=5	=5
4r	2r	1r	1r	1r	1r	1r	(1bn	1r	1r
2f#~	.	.	.	.	.	.	.	.	.
.	4r	.	.	.	.	.	.	.	.
4r	4B-~"	.	.	.	.	.	.	.	.
=6	=6	=6	=6	=6	=6	=6	=6	=6	=6
1r	4r	4r	1r	1r	1r	1r	1B-)	1r	2een~
.	4bn"	2B-~	.	.	.	.	.	.	.
.	2r	.	.	.	.	.	.	.	4r
.	.	4r	.	.	.	.	.	.	4Fn~
=7	=7	=7	=7	=7	=7	=7	=7	=7	=7
1r	4r	1r	1r	2r	1r	1r	1r	1r	(1bn
.	2Cn~	.	.	.	.	.	.	.	.
.	.	.	.	4r	.	.	.	.	.
.	4r	.	.	4An 4e-	.	.	.	.	.
=8	=8	=8	=8	=8	=8	=8	=8	=8	=8
1r	1r	1r	4r	1r	4r	1r	1r	2DDn~	1B-)
.	.	.	2A-~	.	4eno	.	.	.	.
.	.	.	.	.	2r	.	.	4r	.
.	.	.	4r	.	.	.	.	4c#~	.
=9	=9	=9	=9	=9	=9	=9	=9	=9	=9
4r	1r	1r	1r	2r	1r	4r	1r	(1GGn	1r
[2.DDn	.	.	.	.	.	2Cn~	.	.	.
.	.	.	.	4r	.	.	.	.	.
.	.	.	.	4E- 4An	.	4r	.	.	.
=10	=10	=10	=10	=10	=10	=10	=10	=10	=10
2.DD]	1r	1r	1r	4r	1r	2c#~	1r	1A-)	1r
.	.	.	.	4DDn^	.	.	.	.	.
.	.	.	.	2r	.	2r	.	.	.
(4c#	.	.	.	.	.	.	.	.	.
=11	=11	=11	=11	=11	=11	=11	=11	=11	=11
2.Cn)	4r	1r	1r	2r	1r	1r	4r	1r	1r
.	[2.een	.	.	.	.	.	2f#~	.	.
.	.	.	.	4DDn^	.	.	.	.	.
4r	.	.	.	4r	.	.	4r	.	.
=12	=12	=12	=12	=12	=12	=12	=12	=12	=12
4r	2.ee]	1r	1r	1r	4bn	2r	2Fn~	1r	1r
2E-~	.	.	.	.	4r	.	.	.	.
.	.	.	.	.	2r	4r	2r	.	.
4r	(4Fn	.	.	.	.	4Cn~U	.	.	.
=13	=13	=13	=13	=13	=13	=13	=13	=13	=13
(2.DDn	2.f#)	1r	1r	1r	2r	4r	1r	1r	1r
.	.	.	.	.	.	4c#	.	.	.
.	.	.	.	.	4eno	2r	.	.	.
4c#')	4r	.	.	.	4r	.	.	.	.
=14	=14	=14	=14	=14	=14	=14	=14	=14	=14
1r	4r	1r	4r	4GGn~	1r	1r	2r	1r	2r
.	2e-~	.	4CCn"	4r	.	.	.	.	.
.	.	.	4r	2r	.	.	4r	.	4r
.	.	.	qB-	.	.	.	.	.	.
.	4r	.	4een~	.	.	.	4f#~U	.	([4F
=15	=15	=15	=15	=15	=15	=15	=15	=15	=15
1r	(2.een	1r	4r	1r	1r	1r	4r	1r	2F]
.	.	.	4e-~	.	.	.	4Fn~	.	.
.	.	.	2r	.	.	.	2r	.	4een')
.	4Fn')	.	.	.	.	.	.	.	4r
=16	=16	=16	=16	=16	=16	=16	=16	=16	=16
.	.	.	.	qGGn	.	.	.	.	.
4r	2r	1r	1r	4f#	1r	1r	1r	2r	2r
4An~"	.	.	.	4r	.	.	.	.	.
4r	(4Fn~	.	.	2r	.	.	.	4r	2B-~
qA-	.	.	.	.	.	.	.	.	.
4DDn	4r	.	.	.	.	.	.	([4c#	.
!! calando
=17	=17	=17	=17	=17	=17	=17	=17	=17	=17
4r	4A-~)	1r	1r	2r	1r	1r	1r	2c#]	4r
4E-~	4r	.	.	.	.	.	.	.	4bn~
!! tempo
2r	2r	.	.	4r	.	.	.	4DDn')	2r
.	.	.	.	4GGn	.	.	.	4r	.
=18	=18	=18	=18	=18	=18	=18	=18	=18	=18
.	.	.	.	.	qbn	.	.	.	.
1r	2r	2r	1r	4r	4Cn	4r	1r	2r	1r
.	.	.	.	4f#	4r	2GGn	.	.	.
.	4r	(4c#~	.	2r	2r	.	.	2A-~	.
.	4B-~"	4r	.	.	.	4r	.	.	.
!! calando
=19	=19	=19	=19	=19	=19	=19	=19	=19	=19
1r	4r	4B-~)	1r	1r	2r	4G#~	1r	4r	1r
.	4An' 4e-'	4r	.	.	.	4r	.	4GGn'	.
!! tempo
.	4r	2r	.	.	4r	4An~	.	2r	.
.	4eeno	.	.	.	4bn	4r	.	.	.
=20	=20	=20	=20	=20	=20	=20	=20	=20	=20
2r	(4Cn	1r	1r	2r	4r	2r	4r	1r	1r
.	4c#')	.	.	.	4Cn	.	2bn~	.	.
4r	2r	.	.	4r	2r	2f#~	.	.	.
4A-~"U	.	.	.	4DDn	.	.	4r	.	.
=21	=21	=21	=21	=21	=21	=21	=21	=21	=21
!	! solo	!	!	!	!	!	!	!	!
4r	4r	1r	1r	1r	1r	1r	4B-~	1r	1r
4E-"U 4An"U	4bn~	.	.	.	.	.	4r	.	.
4r	(4Cn	.	.	.	.	.	4An~	.	.
4DDn~U	4c#')	.	.	.	.	.	4r	.	.
=22	=22	=22	=22	=22	=22	=22	=22	=22	=22
(4f#U	4r	1r	1r	1r	2r	1r	2r	1r	1r
.	qAn	.	.	.	.	.	.	.	.
4Fn'U)	4B-'	.	.	.	.	.	.	.	.
2r	4r	.	.	.	4r	.	2Cn~	.	.
.	qeen	.	.	.	.	.	.	.	.
.	4e-'	.	.	.	4eeno	.	.	.	.
*>C	*>C	*>C	*>C	*>C	*>C	*>C	*>C	*>C	*>C
!! First ending.
!! rit. - - - - - - - - - -
=23a	=23a	=23a	=23a	=23a	=23a	=23a	=23a	=23a	=23a
! solo	!	!	!	!	!	!	!	!	!
4r	1r	1r	1r	2r	1r	1r	1r	1r	1r
4GGn"U	.	.	.	.	.	.	.	.	.
4f#"U	.	.	.	4GGn	.	.	.	.	.
4Fn"U	.	.	.	4f#	.	.	.	.	.
=24a	=24a	=24a	=24a	=24a	=24a	=24a	=24a	=24a	=24a
4r	1r	1r	1r	1r	1r	1r	1r	1r	1r
qAnU	.	.	.	.	.	.	.	.	.
4G#'U	.	.	.	.	.	.	.	.	.
4r	.	.	.	.	.	.	.	.	.
qDDnU	.	.	.	.	.	.	.	.	.
4E-'U	.	.	.	.	.	.	.	.	.
!! tempo
=25a	=25a	=25a	=25a	=25a	=25a	=25a	=25a	=25a	=25a
1r	1r	1r	1r	2r	2r	4r	1r	1r	1r
.	.	.	.	.	.	2An~	.	.	.
.	.	.	.	4r	4bn	.	.	.	.
.	.	.	.	4Cn	4r	4r	.	.	.
=:|!	=:|!	=:|!	=:|!	=:|!	=:|!	=:|!	=:|!	=:|!	=:|!
!! Repeat from measure 2.
*>D	*>D	*>D	*>D	*>D	*>D	*>D	*>D	*>D	*>D
!! Seconding ending.
!! rit. - - - - - - - - - -
! solo	!	!	!	!	!	!	!	!	!
4r	1r	1r	1r	1r	1r	1r	1r	2r	1r
4GGn"	.	.	.	.	.	.	.	.	.
4f#"	.	.	.	.	.	.	.	(4GGn	.
4Fn"	.	.	.	.	.	.	.	4f#')	.
=24b	=24b	=24b	=24b	=24b	=24b	=24b	=24b	=24b	=24b
4r	1r	1r	1r	2r	1r	1r	1r	4Fn'	1r
qAn	.	.	.	.	.	.	.	.	.
4G#'	.	.	.	.	.	.	.	4r	.
4r	.	.	.	4G#o	.	.	.	2r	.
qDDn	.	.	.	.	.	.	.	.	.
4E-'	.	.	.	4r	.	.	.	.	.
!! tempo
=25b	=25b	=25b	=25b	=25b	=25b	=25b	=25b	=25b	=25b
!	! solo	!	!	!	!	!	!	!	!
1r	2r	1r	1r	1r	1r	1r	1r	1r	4r
.	.	.	.	.	.	.	.	.	[2.een
.	4bn~U	.	.	.	.	.	.	.	.
.	(4CnU	.	.	.	.	.	.	.	.
=26b	=26b	=26b	=26b	=26b	=26b	=26b	=26b	=26b	=26b
4r	4c#'U)	1r	1r	1r	2r	1r	1r	1r	2.ee]
[2.CU	4r	.	.	.	.	.	.	.	.
.	2r	.	.	.	4BB-~	.	.	.	.
.	.	.	.	.	4r	.	.	.	(8ggn
.	.	.	.	.	.	.	.	.	8f#')
!! Continuing.
*>E	*>E	*>E	*>E	*>E	*>E	*>E	*>E	*>E	*>E
=!|:	=!|:	=!|:	=!|:	=!|:	=!|:	=!|:	=!|:	=!|:	=!|:
2.C]	1r	1r	8r	1r	1r	1r	1r	1r	4r
.	.	.	[2..fffn^U	.	.	.	.	.	.
.	.	.	.	.	.	.	.	.	[2.een
(8E-U	.	.	.	.	.	.	.	.	.
8dn'U)	.	.	.	.	.	.	.	.	.
=28	=28	=28	=28	=28	=28	=28	=28	=28	=28
1r	4r	1r	2.fff]	1r	2r	1r	8r	1r	2.ee]
.	.	.	.	.	.	.	[2..cc#^U	.	.
.	[2.g#U	.	.	.	.	.	.	.	.
.	.	.	.	.	4r	.	.	.	.
.	.	.	4r	.	8r	.	.	.	(8cc#
.	.	.	.	.	8aan	.	.	.	8dddn')
=29	=29	=29	=29	=29	=29	=29	=29	=29	=29
1r	2.g#]	8r	2r	1r	8g#'	1r	2.cc#]	1r	1r
.	.	[2..e-U	.	.	8r	.	.	.	.
.	.	.	.	.	4r	.	.	.	.
.	.	.	8r	.	4r	.	.	.	.
.	.	.	([4.dddnU	.	.	.	.	.	.
.	(8fnU	.	.	.	8r	.	4r	.	.
.	8F#'U)	.	.	.	8fn'	.	.	.	.
=30	=30	=30	=30	=30	=30	=30	=30	=30	=30
1r	1r	2.e-]	2.ddd]	1r	8een'	8r	1r	1r	2r
.	.	.	.	.	8r	[2..GGnU	.	.	.
.	.	.	.	.	4r	.	.	.	.
.	.	.	.	.	4r	.	.	.	8r
.	.	.	.	.	.	.	.	.	([4.B-
.	.	.	qe-U	.	.	.	.	.	.
.	.	4r	8bn'U)	.	8r	.	.	.	.
.	.	.	8r	.	8bn'	.	.	.	.
=31	=31	=31	=31	=31	=31	=31	=31	=31	=31
1r	1r	2r	8r	2r	8cccn'	2.GG]	1r	1r	2.B-]
.	.	.	(2.cccnU	.	8r	.	.	.	.
.	.	.	.	.	4r	.	.	.	.
.	.	8r	.	4r	2r	.	.	.	.
.	.	[4.f#U	.	.	.	.	.	.	.
.	.	.	.	8r	.	4r	.	.	8bn')
.	.	.	8d-'U)	8e-~	.	.	.	.	8r
=32	=32	=32	=32	=32	=32	=32	=32	=32	=32
1r	1r	2.f#]	1r	8EEn~	1r	1r	1r	2r	8r
.	.	.	.	.	.	.	.	.	qggn
.	.	.	.	8r	.	.	.	.	(2.g#
.	.	.	.	4r	.	.	.	.	.
.	.	.	.	2r	.	.	.	8r	.
.	.	.	.	.	.	.	.	([4.B-	.
.	.	qfffnU	.	.	.	.	.	.	.
.	.	8aan'U	.	.	.	.	.	.	.
.	.	.	.	.	.	.	.	.	qaan
.	.	8r	.	.	.	.	.	.	8ff#')
=33	=33	=33	=33	=33	=33	=33	=33	=33	=33
1r	1r	8r	1r	1r	1r	1r	1r	2.B-]	1r
.	.	(2.g#U	.	.	.	.	.	.	.
.	.	.	.	.	.	.	.	8AAn')	.
.	.	8gggnoU	.	.	.	.	.	8r	.
=34;	=34;	=34;	=34;	=34;	=34;	=34;	=34;	=34;	=34;
8r	1r	1r	1r	2r	1r	1r	1r	1r	1r
qCC#	.	.	.	.	.	.	.	.	.
2.Cn	.	.	.	.	.	.	.	.	.
.	.	.	.	4r	.	.	.	.	.
.	.	.	.	8r	.	.	.	.	.
.	.	.	.	qBBBn	.	.	.	.	.
8r	.	.	.	8DDn	.	.	.	.	.
=35	=35	=35	=35	=35	=35	=35	=35	=35	=35
! solo	!	!	!	!	!	!	!	!	!
.	.	.	.	qDDn	.	.	.	.	.
8r	1r;	1r;	1r;	8BBBn	1r;	1r;	1r;	1r;	1r;
qCn	.	.	.	.	.	.	.	.	.
2.CC#;	.	.	.	8r	.	.	.	.	.
.	.	.	.	4r	.	.	.	.	.
.	.	.	.	2r;	.	.	.	.	.
8r	.	.	.	.	.	.	.	.	.
=36	=36	=36	=36	=36	=36	=36	=36	=36	=36
.	.	qbbb-U	.	.	.	.	.	.	.
1r	1r	8gggn'^U	1r	1r	1r	1r	1r	8r	1r
.	.	2.g#~U	.	.	.	.	.	(8fn~	.
.	.	.	.	.	.	.	.	[2.gg-	.
.	.	8r	.	.	.	.	.	.	.
=37	=37	=37	=37	=37	=37	=37	=37	=37	=37
.	.	.	.	.	.	.	.	.	qff#
1r	1r	8r	1r	2r	1r	1r	1r	4.gg-])	8aan'^
.	.	qaanU	.	.	.	.	.	.	qg#
.	.	8fffn'^U	.	.	.	.	.	.	2.ggn~
.	.	[2.f#U	.	.	.	.	.	.	.
.	.	.	.	.	.	.	.	8r	.
.	.	.	.	4r	.	.	.	2r	.
.	.	.	.	8r	.	.	.	.	.
.	.	.	.	8EEn~	.	.	.	.	8r
=38	=38	=38	=38	=38	=38	=38	=38	=38	=38
.	.	.	qB-U	.	.	.	.	.	.
1r	1r	4.f#]	8c#'^U	8E-~	2r	4r	1r	1r	8r
.	.	.	2.cccn~U	8r	.	.	.	.	(8bn~
.	.	.	.	4r	.	[2.GGnU	.	.	[2.B-
.	.	8r	.	.	.	.	.	.	.
.	.	2r	.	2r	4r	.	.	.	.
.	.	.	.	.	8r	.	.	.	.
.	.	.	8r	.	8cccn'	.	.	.	.
=39	=39	=39	=39	=39	=39	=39	=39	=39	=39
1r	1r	4r	8r	1r	8bn'	2..GG]	1r	1r	4.B-])
.	.	.	qbnU	.	.	.	.	.	.
.	.	.	8e-'^U	.	8r	.	.	.	.
.	.	[2.e-U	[2.dddnU	.	4r	.	.	.	.
.	.	.	.	.	.	.	.	.	8r
.	.	.	.	.	4r	.	.	.	2r
.	.	.	.	.	8r	.	.	.	.
.	.	.	.	.	8een~	8r	.	.	.
=40	=40	=40	=40	=40	=40	=40	=40	=40	=40
1r	(8F#U	2..e-]	4.ddd]	1r	8fn~	1r	4r	1r	1r
.	8fnU	.	.	.	8r	.	.	.	.
.	[2.g#U	.	.	.	4r	.	[2.cc#U	.	.
.	.	.	8r	.	.	.	.	.	.
.	.	.	2r	.	4r	.	.	.	.
.	.	.	.	.	8r	.	.	.	.
.	.	8r	.	.	8g#'	.	.	.	.
=41	=41	=41	=41	=41	=41	=41	=41	=41	=41
1r	2.g#])	1r	4r	1r	8aan'	1r	2..cc#]	1r	(8dddn
.	.	.	.	.	8r	.	.	.	8cc#
.	.	.	[2.fffnU	.	4r	.	.	.	[2.een
.	.	.	.	.	2r	.	.	.	.
.	4r	.	.	.	.	.	.	.	.
.	.	.	.	.	.	.	8r	.	.
=42	=42	=42	=42	=42	=42	=42	=42	=42	=42
(8dnU	2r	1r	2..fff]	1r	1r	1r	1r	1r	2.ee])
8E-U	.	.	.	.	.	.	.	.	.
[2.CnU	.	.	.	.	.	.	.	.	.
.	4r	.	.	.	.	.	.	.	.
.	8r	.	.	.	.	.	.	.	4r
.	([8aaanoU	.	8r	.	.	.	.	.	.
=43	=43	=43	=43	=43	=43	=43	=43	=43	=43
2.C])	2.aaao]	1r	1r	2r	1r	1r	1r	1r	(8f#
.	.	.	.	.	.	.	.	.	8ggn
.	.	.	.	.	.	.	.	.	[2.een
.	.	.	.	4r	.	.	.	.	.
4r	4f#U)	.	.	8r	.	.	.	.	.
.	.	.	.	8Fn~	.	.	.	.	.
=44	=44	=44	=44	=44	=44	=44	=44	=44	=44
!	! solo	! solo	! solo	!	!	!	!	!	!
1r	8r	4r	2r	1r	1r	1r	1r	1r	2.ee]
.	(8f#	.	.	.	.	.	.	.	.
.	2.ggno)	8r	.	.	.	.	.	.	.
.	.	(8g#	.	.	.	.	.	.	.
.	.	[2g#	4r	.	.	.	.	.	.
.	.	.	8r	.	.	.	.	.	4r
.	.	.	([8An	.	.	.	.	.	.
!! rit. - - - - - - -
=45	=45	=45	=45	=45	=45	=45	=45	=45	=45
1r	8r	4.g#]	2.An]	1r	2r	1r	1r	1r	1r
.	(8cco	.	.	.	.	.	.	.	.
.	8g#')	.	.	.	.	.	.	.	.
.	8r	4.ggo)	.	.	.	.	.	.	.
.	2r	.	.	.	4r	.	.	.	.
.	.	4r	4cccn)	.	8r	.	.	.	.
.	.	.	.	.	8cccc#~	.	.	.	.
=46;	=46;	=46;	=46;	=46;	=46;	=46;	=46;	=46;	=46;
!! tempo
2r	1r	1r	8r	1r	1r	2r	1r	1r	4r
.	.	.	(8cccn	.	.	.	.	.	.
.	.	.	2.bn)	.	.	.	.	.	8r
.	.	.	.	.	.	.	.	.	(8bb-^
4r	.	.	.	.	.	4r	.	.	[2bb-
8r	.	.	.	.	.	[4f#^	.	.	.
(8eeno	.	.	.	.	.	.	.	.	.
!! rit. - - - -
=47	=47	=47	=47	=47	=47	=47	=47	=47	=47
2.ddn)	1r	1r	8r	1r	2r	8f#]	1r	1r	4.bb-]
.	.	.	(8bn	.	.	8r	.	.	.
.	.	.	8bb-)	.	.	4r	.	.	.
.	.	.	8r	.	.	.	.	.	4.bn)
.	.	.	4r	.	4r	2r	.	.	.
!! tempo
4r	.	.	8r	.	8r	.	.	.	4r
.	.	.	(8bn	.	8bb-z'	.	.	.	.
=48	=48	=48	=48	=48	=48	=48	=48	=48	=48
1r	2r	4r	8bb-)	1r	1r	1r	1r	1r	2r
.	.	.	8r	.	.	.	.	.	.
.	.	8r	4r	.	.	.	.	.	.
.	.	qaaan	.	.	.	.	.	.	.
.	.	(8eee-	.	.	.	.	.	.	.
.	4r	[2eee-	2r	.	.	.	.	.	4r
.	8r	.	.	.	.	.	.	.	[4cccn
.	(8ddn	.	.	.	.	.	.	.	.
=49	=49	=49	=49	=49	=49	=49	=49	=49	=49
1r	2.cccc#o)	4.eee-]	8r	1r	2r	1r	1r	1r	8ccc]
.	.	.	(2..ddn^	.	.	.	.	.	8r
.	.	.	.	.	.	.	.	.	4r
.	.	4.een)	.	.	.	.	.	.	.
.	.	.	.	.	4r	.	.	.	4r
.	4r	4r	.	.	8r	.	.	.	8r
.	.	.	.	.	8g#z'	.	.	.	(8ggn
=50	=50	=50	=50	=50	=50	=50	=50	=50	=50
! solo	!	! solo	! solo	!	!	!	!	!	!
4r	1r	2r	4cccc#o	1r	1r	1r	1r	1r	8a-')
.	.	.	.	.	.	.	.	.	8r
8r	.	.	8r	.	.	.	.	.	4r
qAn	.	.	.	.	.	.	.	.	.
(8e-	.	.	(8cccc#	.	.	.	.	.	.
[2e-	.	4r	[2cccn	.	.	.	.	.	2r
.	.	8r	.	.	.	.	.	.	.
.	.	([8cccn	.	.	.	.	.	.	.
=51	=51	=51	=51	=51	=51	=51	=51	=51	=51
4.e-]	1r	2.ccc]	4ccc]	1r	1r	1r	1r	1r	8r
.	.	.	.	.	.	.	.	.	(2..een
.	.	.	4r	.	.	.	.	.	.
4.ddno)	.	.	.	.	.	.	.	.	.
.	.	.	2r	.	.	.	.	.	.
4r	.	8cccc#o)	.	.	.	.	.	.	.
.	.	8r	.	.	.	.	.	.	.
=52	=52	=52	=52	=52	=52	=52	=52	=52	=52
1r	1r	1r	8r	1r	1r	1r	4r	2r	4Fn')
.	.	.	2..eee-~	.	.	.	.	.	.
.	.	.	.	.	.	.	([2.ddn	.	8r
.	.	.	.	.	.	.	.	.	(8Fn
.	.	.	.	.	.	.	.	4r	[2f#
.	.	.	.	.	.	.	.	8r	.
.	.	.	.	.	.	.	.	([8f#	.
=53	=53	=53	=53	=53	=53	=53	=53	=53	=53
1r	1r	1r	(2..ddn	1r	1r	1r	4dd]	2.f#]	4f#])
.	.	.	.	.	.	.	4.bn)	.	4r
.	.	.	.	.	.	.	.	.	2r
.	.	.	.	.	.	.	8r	.	.
.	.	.	8cccc#o)	.	.	.	4r	8ddn')	.
.	.	.	.	.	.	.	.	8r	.
=54	=54	=54	=54	=54	=54	=54	=54	=54	=54
8r	2r	4r	1r	1r	1r	1r	1r	1r	4r
2..d#~	.	.	.	.	.	.	.	.	.
.	.	8r	.	.	.	.	.	.	([2.een
.	.	([8cccn	.	.	.	.	.	.	.
.	(8Fn	2ccc_	.	.	.	.	.	.	.
.	[4.eeno	.	.	.	.	.	.	.	.
=55	=55	=55	=55	=55	=55	=55	=55	=55	=55
(2..eeno	2eeo_	4.ccc]	2r	1r	1r	1r	1r	1r	4ee]
.	.	.	.	.	.	.	.	.	4.ggn)
.	.	4.cccc#)	.	.	.	.	.	.	.
.	8eeo]	.	4r	.	.	.	.	.	.
.	8r	.	.	.	.	.	.	.	8r
.	4r	4r	8r	.	.	.	.	.	4r
8Fnz')	.	.	(8bb-	.	.	.	.	.	.
=56	=56	=56	=56	=56	=56	=56	=56	=56	=56
1r	2r	2r	2.bn)	1r	1r	1r	1r	4r	1r
.	.	.	.	.	.	.	.	8r	.
.	.	.	.	.	.	.	.	([8f#	.
.	(8cccc#o	4r	.	.	.	.	.	2f#_	.
.	[4.ddn	.	.	.	.	.	.	.	.
.	.	[4An	4r	.	.	.	.	.	.
=57	=57	=57	=57	=57	=57	=57	=57	=57	=57
1r	2dd_	2.A]	(8ggn	1r	1r	1r	1r	4.f#]	2r
.	.	.	2.g#)	.	.	.	.	.	.
.	.	.	.	.	.	.	.	4.Fn)	.
.	8dd])	.	.	.	.	.	.	.	4r
.	8r	.	.	.	.	.	.	.	.
.	4r	([4bb-	.	.	.	.	.	4r	8r
.	.	.	([8aaan	.	.	.	.	.	(8g#z
=58	=58	=58	=58	=58	=58	=58	=58	=58	=58
1r	2r	8bb-]	2.aaa]	1r	1r	1r	1r	1r	2.ggn)
.	.	qeen	.	.	.	.	.	.	.
.	.	4.ee-)	.	.	.	.	.	.	.
.	4r	2r	.	.	.	.	.	.	.
.	[4aano	.	8f#')	.	.	.	.	.	4r
.	.	.	8r	.	.	.	.	.	.
=59	=59	=59	=59	=59	=59	=59	=59	=59	=59
1r	2.aao]	4r	1r	1r	1r	1r	1r	1r	(8bn~
.	.	.	.	.	.	.	.	.	2.bb-)
.	.	2.ggn~	.	.	.	.	.	.	.
.	[4g#	.	.	.	.	.	.	.	.
.	.	.	.	.	.	.	.	.	([8An
!! rit. - - - - - - - - - -
=60	=60	=60	=60	=60	=60	=60	=60	=60	=60
1r	8g#]	1r	1r	1r	1r	1r	1r	4r	2.A]
.	qddn	.	.	.	.	.	.	.	.
.	4.e-	.	.	.	.	.	.	.	.
.	.	.	.	.	.	.	.	qf#	.
.	.	.	.	.	.	.	.	(4.Fn	.
.	2r	.	.	.	.	.	.	.	.
.	.	.	.	.	.	.	.	8g#')	.
.	.	.	.	.	.	.	.	4r	8cccn')
.	.	.	.	.	.	.	.	.	8r
!! tempo
=61	=61	=61	=61	=61	=61	=61	=61	=61	=61
!	!	!	! solo	!	!	!	!	!	!
1r	1r	1r	4r	1r	1r	1r	4r	1r	1r
.	.	.	8r	.	.	.	2.bn~U	.	.
.	.	.	qggnU	.	.	.	.	.	.
.	.	.	4f#~U	.	.	.	.	.	.
.	.	.	(8bb-U	.	.	.	.	.	.
.	.	.	8aaaaoU)	.	.	.	.	.	.
.	.	.	qeee-U	.	.	.	.	.	.
.	.	.	8een'U	.	.	.	.	.	.
!! rit. - - - - - - -
=62	=62	=62	=62	=62	=62	=62	=62	=62	=62
1r	1r	4r	8r	1r	1r	1r	1r	1r	1r
.	.	.	qcccnU	.	.	.	.	.	.
.	.	.	8cccc#U	.	.	.	.	.	.
.	.	qcccnU	.	.	.	.	.	.	.
.	.	4.cccc#oU	(8ddnU	.	.	.	.	.	.
.	.	.	8bn'U)	.	.	.	.	.	.
.	.	.	4r	.	.	.	.	.	.
.	.	8bb-'U)	.	.	.	.	.	.	.
.	.	4r	8r	.	.	.	.	.	.
!! tempo
.	.	.	qcccnU	.	.	.	.	.	.
.	.	.	8cccc#oU	.	.	.	.	.	.
=63	=63	=63	=63	=63	=63	=63	=63	=63	=63
1r	1r	4r	8aaaU	2r	1r	1r	1r	1r	1r
.	.	.	(8bb-U	.	.	.	.	.	.
.	.	.	qeenU	.	.	.	.	.	.
.	.	8r	8eee-U	.	.	.	.	.	.
.	.	qbnU	.	.	.	.	.	.	.
.	.	4cccn~U	8ggn'U)	.	.	.	.	.	.
!! rit. - - - -
.	.	.	2r	4r	.	.	.	.	.
.	.	(8g#U	.	.	.	.	.	.	.
.	.	8An'U)	.	8r	.	.	.	.	.
.	.	qe-U	.	qg-U	.	.	.	.	.
.	.	8ddn'U	.	8Fn'U	.	.	.	.	.
!! tempo
=64	=64	=64	=64	=64	=64	=64	=64	=64	=64
!	! solo	!	!	!	!	!	!	!	!
1r	8r	1r	1r	1r	1r	4r	1r	1r	1r
.	qf#U	.	.	.	.	.	.	.	.
.	8Fn'U	.	.	.	.	.	.	.	.
.	(8eenoU	.	.	.	.	8r	.	.	.
.	8ggnoU)	.	.	.	.	4.g#~U	.	.	.
.	4r	.	.	.	.	.	.	.	.
.	8r	.	.	.	.	4r	.	.	.
!! rit. - - - - - - -
.	qf#U	.	.	.	.	.	.	.	.
.	8Fn'U	.	.	.	.	.	.	.	.
*>F	*>F	*>F	*>F	*>F	*>F	*>F	*>F	*>F	*>F
!! First ending.
=65a	=65a	=65a	=65a	=65a	=65a	=65a	=65a	=65a	=65a
1r	8An'U	1r	1r	1r	2r	1r	1r	1r	4r
.	(8g#U	.	.	.	.	.	.	.	.
.	qddnU	.	.	.	.	.	.	.	.
.	8e-U	.	.	.	.	.	.	.	[2.een
.	8bn'U)	.	.	.	.	.	.	.	.
!! tempo
.	2r	.	.	.	4r	.	.	.	.
.	.	.	.	.	8r	.	.	.	.
.	.	.	.	.	qcccn	.	.	.	.
.	.	.	.	.	8dddd-z'	.	.	.	.
=66a	=66a	=66a	=66a	=66a	=66a	=66a	=66a	=66a	=66a
4r	1r	4r	1r	1r	1r	1r	1r	1r	2.ee]
[2.Cn	.	.	.	.	.	.	.	.	.
.	.	8r	.	.	.	.	.	.	.
.	.	4.bb-~U	.	.	.	.	.	.	.
.	.	4r	.	.	.	.	.	.	(8ggn
.	.	.	.	.	.	.	.	.	8f#')
=:|!	=:|!	=:|!	=:|!	=:|!	=:|!	=:|!	=:|!	=:|!	=:|!
*>G	*>G	*>G	*>G	*>G	*>G	*>G	*>G	*>G	*>G
!! Second ending.
1r	8An'U	1r	1r	1r	2r	1r	1r	1r	1r
.	(8g#U	.	.	.	.	.	.	.	.
.	qddnU	.	.	.	.	.	.	.	.
.	8e-U	.	.	.	.	.	.	.	.
.	8bn'U)	.	.	.	.	.	.	.	.
.	2r	.	.	.	4r	.	.	.	.
!! tempo
.	.	.	.	.	8r	.	.	.	.
.	.	.	.	.	qccn	.	.	.	.
.	.	.	.	.	8dddd-z'	.	.	.	.
=66b	=66b	=66b	=66b	=66b	=66b	=66b	=66b	=66b	=66b
!! rit. - - - - - - -
1r	1r	4r	1r	1r	1r	1r	1r	1r	1r
.	.	8r	.	.	.	.	.	.	.
.	.	4.bb-~U	.	.	.	.	.	.	.
.	.	4r	.	.	.	.	.	.	.
==	==	==	==	==	==	==	==	==	==
*-	*-	*-	*-	*-	*-	*-	*-	*-	*-
!!!ODE: Meiner Tochter Christine [Christine von Webern]
!!!CDT: 1893/12/3-1945/9/15
!!!CNT: Oesterreicher
!!!AFR: serial; 12-tone
!!!AST: serial
!!!AGN: chamber
!!!AMT: simple duple
!!!AIN: arpa cello clarb clars cor viola violn
!!!AGN: chamber
!!!ODT: 1928/8/
!!!EED: Brian Alegant
!!!ENC: David Huron
!!!EEV: 1.0
!!!RDT: 1995 June 3
!!!YED: 1995 September 15
!!!EFL: 1/2
!!!YEN: Canada
!!!EST: Missing stem directions and beaming.
!!!VTS: 161877531
